icon-svg/jaguar.svg

<svg xmlns="http://www.w3.org/2000/svg" fill="#44739e" viewBox="0 0 24 24"><path d="m21.941 12.063-.166-.053-.455.018a1.92 1.92 0 0 1-.715-.225l-.531-.372a16.9 16.9 0 0 0-1.891-1.152l-1.211-.6c-1.016-.479-1.849-.851-2.5-1.105l-2.658-1.055a3.73 3.73 0 0 0-1.105-.266l-.981-.017a5.46 5.46 0 0 0-1.512.164l-.426.124c-.2.059-.283.113-.277.154l.047.035.52-.147.165-.018.166.029.159.018a.291.291 0 0 0 .219-.118c.071-.089.213-.124.431-.112l.219.023-.4.124-.319.278a.64.64 0 0 1-.289-.053l-.248-.071-.154.083.136.13a.52.52 0 0 1 .082.3.567.567 0 0 0-.431-.213l-.289.024-.166-.071-.283.248-.018.053.087-.02.171-.1-.171.177-.042.107c-.006.136.036.207.124.212H7.3a.4.4 0 0 1 .491-.425.458.458 0 0 1 .336.16.468.468 0 0 1 .1.348.361.361 0 0 1-.272.349l-.041.024.036.048.124-.018a.969.969 0 0 0 .615-.526l.354-.65.993.373a2.36 2.36 0 0 0 .62-.4 1.9 1.9 0 0 1-.266.449l-.295.248-.9-.343-.154.308.886.336.219.119.207.183.3.011c-.2-.236-.29-.4-.284-.484a.73.73 0 0 1 .172-.3l.319-.42-.178.715A2.5 2.5 0 0 0 11 9.2l.779.142.284.124-.673-.041-1.1.023-.579.142-.237.419.2.39.278.036.266-.319-.13-.213.656-.053 1.134.154h.437l.29-.467-.505-1.055-.042-.177c0-.2.089-.284.266-.278a.3.3 0 0 1 .242.059c-.177 0-.265.059-.265.183a.21.21 0 0 0 .023.1l.576 1.082a2.8 2.8 0 0 0 .739.142 5.2 5.2 0 0 0 .827-.006 1.254 1.254 0 0 1-.55.16l-.715.035-.372-.053-.183.3.8.119a10.8 10.8 0 0 0 1.116-.012l.709-.042c.071.006.2.1.378.29l.816.892a1.51 1.51 0 0 0 .413.337 1.49 1.49 0 0 0 .6.148l1.761.094.909.821.544.042.189-.184-.289-.313-.284-.029a.58.58 0 0 1-.26-.13l-.809-.739-.615-.047a.453.453 0 0 1-.372-.195l-.437-.538-.579-.531a4.12 4.12 0 0 1 1.353 1.016l.609.041a.65.65 0 0 1 .36.189l.715.633a.777.777 0 0 0 .384.082l.189.113.284.325.638-.03c.147-.006.224-.071.236-.2zM9.321 14.42v.768l-.455.089a.869.869 0 0 1-.721-.355 1.5 1.5 0 0 1-.266-.939A1.457 1.457 0 0 1 8.192 13a1.108 1.108 0 0 1 .863-.354 1.268 1.268 0 0 1 .875.348v-.6a3.14 3.14 0 0 0-1-.165 1.852 1.852 0 0 0-1.312.49 1.64 1.64 0 0 0-.514 1.247 1.634 1.634 0 0 0 .49 1.259 1.848 1.848 0 0 0 1.306.46 2.113 2.113 0 0 0 1.105-.265v-1.39h-.856a.655.655 0 0 1 .172.39m-6.559-1.796v2.322a2.26 2.26 0 0 1-.142.886A1.655 1.655 0 0 1 2 16.5h.78a2.317 2.317 0 0 0 .679-1.844v-2.351h-.821a.47.47 0 0 1 .124.319m4 2.582-1.181-2.913h-.438l-1.122 2.824a.98.98 0 0 1-.355.479h.922a.256.256 0 0 1-.13-.2l.041-.16.172-.484h1.17l.2.573a.205.205 0 0 1-.089.272H7.04a.776.776 0 0 1-.278-.391m-1.95-.839.45-1.105.413 1.105zm14.547.922-.685-1.271a.9.9 0 0 0 .626-.85c0-.574-.408-.863-1.229-.863h-1.134a.455.455 0 0 1 .124.319V15.6h.839a.533.533 0 0 1-.124-.378V12.7l.261-.018a.478.478 0 0 1 .514.532.627.627 0 0 1-.662.7l.709 1.471a.328.328 0 0 0 .307.219h.733a.9.9 0 0 1-.279-.315m-5.902-2.984h-.91a.538.538 0 0 1 .213.5v1.666c0 .491-.225.739-.668.739a.646.646 0 0 1-.733-.733v-2.172h-.868a.417.417 0 0 1 .147.354v1.666a1.205 1.205 0 0 0 1.383 1.342 1.2 1.2 0 0 0 .892-.325 1.244 1.244 0 0 0 .325-.922v-1.613a.545.545 0 0 1 .219-.502m2.966 2.901-1.176-2.913H14.8l-1.123 2.824a.98.98 0 0 1-.354.479h.933a.258.258 0 0 1-.13-.2l.036-.16.165-.484H15.5l.207.573a.216.216 0 0 1-.089.272h1.087a.747.747 0 0 1-.282-.391m-1.944-.839.437-1.105.425 1.105z"/></svg>

<?xml version="1.0" encoding="UTF-8"?>
<svg width="24px" fill="#44739e" height="24px" viewBox="0 0 24 24" version="1.1" xmlns="http://www.w3.org/2000/svg" xmlns:xlink="http://www.w3.org/1999/xlink">
            <path d="M 21.941,12.063 21.775,12.01 21.32,12.028 a 1.915,1.915 0 0 1 -0.715,-0.225 l -0.531,-0.372 a 16.927,16.927 0 0 0 -1.891,-1.152 l -1.211,-0.6 C 15.956,9.2 15.123,8.828 14.472,8.574 L 11.814,7.519 A 3.732,3.732 0 0 0 10.709,7.253 L 9.728,7.236 A 5.464,5.464 0 0 0 8.216,7.4 L 7.79,7.524 C 7.59,7.583 7.507,7.637 7.513,7.678 L 7.56,7.713 8.08,7.566 8.245,7.548 8.411,7.577 8.57,7.595 A 0.291,0.291 0 0 0 8.789,7.477 C 8.86,7.388 9.002,7.353 9.22,7.365 L 9.439,7.388 9.039,7.512 8.72,7.79 A 0.64,0.64 0 0 1 8.431,7.737 L 8.183,7.666 8.029,7.749 8.165,7.879 A 0.522,0.522 0 0 1 8.247,8.179 0.567,0.567 0 0 0 7.816,7.966 L 7.527,7.99 7.361,7.919 7.078,8.167 7.06,8.22 7.147,8.2 7.318,8.1 7.147,8.277 7.105,8.384 C 7.099,8.52 7.141,8.591 7.229,8.596 H 7.3 a 0.4,0.4 0 0 1 0.491,-0.425 0.458,0.458 0 0 1 0.336,0.16 0.468,0.468 0 0 1 0.1,0.348 0.361,0.361 0 0 1 -0.272,0.349 L 7.914,9.052 7.95,9.1 8.074,9.082 A 0.969,0.969 0 0 0 8.689,8.556 l 0.354,-0.65 0.993,0.373 a 2.355,2.355 0 0 0 0.62,-0.4 1.909,1.909 0 0 1 -0.266,0.449 l -0.295,0.248 -0.9,-0.343 -0.154,0.308 0.886,0.336 0.219,0.119 0.207,0.183 0.3,0.011 c -0.2,-0.236 -0.29,-0.4 -0.284,-0.484 a 0.733,0.733 0 0 1 0.172,-0.3 L 10.86,7.986 10.682,8.701 A 2.511,2.511 0 0 0 11,9.2 l 0.779,0.142 0.284,0.124 -0.673,-0.041 -1.1,0.023 -0.579,0.142 -0.237,0.419 0.2,0.39 0.278,0.036 0.266,-0.319 -0.13,-0.213 0.656,-0.053 1.134,0.154 h 0.437 L 12.605,9.537 12.1,8.482 12.058,8.305 c 0,-0.2 0.089,-0.284 0.266,-0.278 a 0.3,0.3 0 0 1 0.242,0.059 c -0.177,0 -0.265,0.059 -0.265,0.183 v 0 a 0.208,0.208 0 0 0 0.023,0.1 L 12.9,9.451 a 2.791,2.791 0 0 0 0.739,0.142 5.182,5.182 0 0 0 0.827,-0.006 1.254,1.254 0 0 1 -0.55,0.16 l -0.715,0.035 -0.372,-0.053 -0.183,0.3 0.8,0.119 a 10.82,10.82 0 0 0 1.116,-0.012 l 0.709,-0.042 c 0.071,0.006 0.2,0.1 0.378,0.29 l 0.816,0.892 a 1.509,1.509 0 0 0 0.413,0.337 1.494,1.494 0 0 0 0.6,0.148 l 1.761,0.094 0.909,0.821 0.544,0.042 0.189,-0.184 -0.289,-0.313 -0.284,-0.029 a 0.577,0.577 0 0 1 -0.26,-0.13 l -0.809,-0.739 -0.615,-0.047 a 0.453,0.453 0 0 1 -0.372,-0.195 l -0.437,-0.538 -0.579,-0.531 a 4.118,4.118 0 0 1 1.353,1.016 l 0.609,0.041 a 0.65,0.65 0 0 1 0.36,0.189 l 0.715,0.633 a 0.777,0.777 0 0 0 0.384,0.082 l 0.189,0.113 0.284,0.325 0.638,-0.03 c 0.147,-0.006 0.224,-0.071 0.236,-0.2 z M 9.321,14.42 v 0.768 L 8.866,15.277 A 0.869,0.869 0 0 1 8.145,14.922 1.5,1.5 0 0 1 7.879,13.983 1.457,1.457 0 0 1 8.192,13 1.108,1.108 0 0 1 9.055,12.646 1.268,1.268 0 0 1 9.93,12.994 v -0.6 a 3.14,3.14 0 0 0 -1,-0.165 1.852,1.852 0 0 0 -1.312,0.49 1.639,1.639 0 0 0 -0.514,1.247 1.634,1.634 0 0 0 0.49,1.259 1.848,1.848 0 0 0 1.306,0.46 2.113,2.113 0 0 0 1.105,-0.265 V 14.03 H 9.149 a 0.655,0.655 0 0 1 0.172,0.39 z M 2.762,12.624 v 0 2.322 A 2.264,2.264 0 0 1 2.62,15.832 1.655,1.655 0 0 1 2,16.5 H 2.78 A 2.317,2.317 0 0 0 3.459,14.656 V 12.305 H 2.638 a 0.47,0.47 0 0 1 0.124,0.319 z m 4,2.582 -1.181,-2.913 H 5.143 l -1.122,2.824 a 0.981,0.981 0 0 1 -0.355,0.479 h 0.922 a 0.256,0.256 0 0 1 -0.13,-0.2 l 0.041,-0.16 0.172,-0.484 h 1.17 l 0.2,0.573 A 0.205,0.205 0 0 1 5.952,15.597 H 7.04 A 0.776,0.776 0 0 1 6.762,15.206 Z m -1.95,-0.839 0.45,-1.105 0.413,1.105 z m 14.547,0.922 -0.685,-1.271 a 0.9,0.9 0 0 0 0.626,-0.85 c 0,-0.574 -0.408,-0.863 -1.229,-0.863 h -1.134 a 0.455,0.455 0 0 1 0.124,0.319 V 15.6 H 17.9 A 0.533,0.533 0 0 1 17.776,15.222 V 12.7 l 0.261,-0.018 a 0.478,0.478 0 0 1 0.514,0.532 0.627,0.627 0 0 1 -0.662,0.7 v 0 l 0.709,1.471 a 0.328,0.328 0 0 0 0.307,0.219 h 0.733 a 0.9,0.9 0 0 1 -0.279,-0.315 z m -5.902,-2.984 h -0.91 a 0.538,0.538 0 0 1 0.213,0.5 v 1.666 c 0,0.491 -0.225,0.739 -0.668,0.739 a 0.646,0.646 0 0 1 -0.733,-0.733 v -2.172 h -0.868 a 0.417,0.417 0 0 1 0.147,0.354 v 1.666 a 1.205,1.205 0 0 0 1.383,1.342 1.2,1.2 0 0 0 0.892,-0.325 1.244,1.244 0 0 0 0.325,-0.922 v -1.613 a 0.545,0.545 0 0 1 0.219,-0.502 z m 2.966,2.901 -1.176,-2.913 H 14.8 l -1.123,2.824 a 0.98,0.98 0 0 1 -0.354,0.479 h 0.933 a 0.258,0.258 0 0 1 -0.13,-0.2 l 0.036,-0.16 0.165,-0.484 H 15.5 l 0.207,0.573 a 0.216,0.216 0 0 1 -0.089,0.272 h 1.087 a 0.747,0.747 0 0 1 -0.282,-0.391 z m -1.944,-0.839 0.437,-1.105 0.425,1.105 z"/>

</svg>
